X:1
T:Title
%%score [ ( 1 2 ) ( 3 4 ) ] { ( 5 6 ) | ( 7 8 ) }
L:1/8
Q:1/4=120
M:4/4
K:A
V:1 treble nm="Midi_74"
V:2 treble 
V:3 bass nm="Midi_74"
V:4 bass 
V:5 treble nm="Org."
V:6 treble 
V:7 bass 
V:8 bass 
V:1
 A8 | A4 F4 | d8 || B8 | B4 G4 | A4 F4 | E8 || e8 | e4 c4 | f8 || d8 | %11
 d4"^William Henry Havergal\n(1793-1870)" c4 | B4 G4 | A8 |] %14
V:2
 (E6 D2) | C4 D4 | D8 || (F6 E2) | D4 E4 | F4 ^D4 | E8 || E8 | E4 E4 | A8 || F8 | E4 E4 | F4 D4 | %13
 C8 |] %14
V:3
 A,8 | A,4 A,4 | B,8 || (B,6 C2) | D4 D4 | C4 (B,2 A,2) | G,8 || (B,6 A,2) | G,4 A,4 | C8 || %10
 (D6 C2) | B,4 C4 | D4 B,4 | A,8 |] %14
V:4
 (C,6 B,,2) | A,,4 D,4 | B,,8 || (D,6 C,2) | B,,4 E,4 | A,,4 B,,4 | E,8 || (G,6 F,2) | E,4 A,4 | %9
 F,8 || (B,6 A,2) | G,4 A,4 | D,4 E,4 | A,,8 |] %14
V:5
 A8 | A4 F4 | d8 || B8 | B4 G4 | A4 [^DF]4 | E8 || [Ee]8 | [Ge]4 [Ac]4 | [Fcf]8 || d8 | d4 c4 | %12
 B4 G4 | A8 |] %14
V:6
 E6 D2 | C4 D4 | [DF]8 || F6 E2 | D4 D4 | [CF]4 B,2 A,2 | [G,E]8 || B6 A2 | E8 | A8 || F8 | E4 E4 | %12
 [DF]4 [B,D]4 | [A,C]8 |] %14
V:7
 A,8 | A,4 x4 | x8 || x8 | x8 | x8 | x8 || x8 | x8 | x8 || D6 C2 | x8 | x8 | x8 |] %14
V:8
 C,6 B,,2 | A,,4 D,4 | B,,8 || D,6 C,2 | B,,4 E,4 | A,,4 B,,4 | E,8 || G,6 F,2 | E,4 A,4 | F,8 || %10
 B,6 A,2 | G,4 A,4 | D,4 E,4 | A,,8 |] %14

